file/rolex.svg

<svg clip-rule="evenodd" fill-rule="evenodd" stroke-linejoin="round" stroke-miterlimit="1.41421" viewBox="0 0 560 400" xmlns="http://www.w3.org/2000/svg"><g fill-rule="nonzero" transform="matrix(1.04648 0 0 1.04648 68.9603 42.5187)"><path d="m159.969 88.722c.511 0 1.03-.083 1.511-.195l17.312 58.832h.016c1.923 6.563 11.482 11.551 22.988 11.551 11.515 0 21.055-4.984 22.998-11.551h.008l17.298-58.793c.404.083.855.158 1.321.158 3.366 0 6.084-2.718 6.084-6.098 0-3.342-2.712-6.077-6.084-6.077-3.35 0-6.084 2.727-6.084 6.077 0 2.441 1.412 4.514 3.472 5.49l-20.056 42.981 3.215-57.914h.137c3.351 0 6.092-2.718 6.092-6.077 0-3.356-2.734-6.099-6.092-6.099-3.344 0-6.095 2.742-6.095 6.099 0 2.772 1.87 5.093 4.396 5.835l-13.33 56.602-6.438-62.383c2.961-.435 5.214-2.967 5.214-6.032 0-3.35-2.711-6.083-6.077-6.083-3.371 0-6.091 2.727-6.091 6.083 0 3.065 2.283 5.619 5.234 6.032l-6.415 62.263-13.315-56.488c2.561-.72 4.455-3.05 4.455-5.835 0-3.357-2.733-6.098-6.083-6.098-3.373 0-6.1 2.741-6.1 6.098 0 3.35 2.728 6.077 6.1 6.077h.083l3.222 57.882-20.098-43.027c1.968-1.014 3.297-3.05 3.297-5.423 0-3.342-2.712-6.076-6.093-6.076-3.356 0-6.076 2.727-6.076 6.076-.001 3.392 2.711 6.113 6.074 6.113zm41.714 53.678c10.529 0 19.054 2.697 19.054 6.001 0 3.32-8.524 5.994-19.054 5.994s-19.063-2.666-19.063-5.994c.003-3.304 8.534-6.001 19.063-6.001z" fill="#a2803e"/><path d="m134.473 183.582c-17.456 0-31.605 14.174-31.605 31.17 0 17.018 14.149 31.176 31.605 31.176 17.439 0 31.581-14.164 31.581-31.176-.001-16.996-14.143-31.17-31.581-31.17zm201.352 2.262v4.248h-5.053c-1.097.016-1.991.902-1.991 2 0 .465.188.9.465 1.238l1.848 2.344 8.863 11.031 11.295-13.443c.225-.33.369-.719.369-1.164 0-1.103-.893-1.982-2.005-1.982h-.014v-.014h-5.152v-4.252h23.477v4.252h-3.326c-4.399.066-5.323 1.42-8.741 5.332v-.008l-12.738 15.207 19.251 23.961c3.259 3.754 4.251 5.054 8.474 5.158v-.003h-.002v-.003h.002v.003h2.824v4.234h-31.655v-4.234h5.445c1.114 0 2.014-.91 2.014-2.014 0-.467-.188-.894-.458-1.248l-1.729-2.146-11.319-14.113-13.625 16.273c-.284.339-.458.767-.458 1.232 0 1.129.908 2.014 2.005 2.014h6.188v4.236h-25.104v-4.236h3.581c4.408-.084 5.34-1.404 8.771-5.334v.039l15.345-18.311-17.042-21.217c-2.944-3.383-4.025-4.656-7.766-4.832h-1.397v-4.248zm-40.431-.055v.006h.309v20.004h-4.431v-5.986c-.045-5.295-4.351-9.582-9.674-9.613h-21.834v20.865h6.976c3.945-.045 7.136-2.856 7.136-6.797 0-.045-.009-.105-.009-.158h.009v-2.824h3.994v24.346h-4.001v-3.217h-.009c.009-.039.009-.09.009-.156 0-3.938-3.191-7.137-7.128-7.184h-6.978v24.513h21.798c5.339 0 9.674-4.301 9.718-9.619l-.002-6.934h4.432v20.94h-57.842v-4.401h8.302v-49.385h-8.302v-4.4zm-90.908-.014v4.393h-8.465v49.373h18.467v-.016c.014 0 .039.008.06.008 5.295 0 9.583-4.234 9.721-9.5v-8.787h4.371v8.322h.047v14.361h-.047v.016h-54.678v-4.4h8.473v-49.377h-8.473v-4.393zm-130.347-.076v.016c.111 0 .202-.016.285-.016 8.283 0 14.99 6.723 14.99 15.006 0 7.463-5.453 13.678-12.609 14.811 1.923.557 4.507 1.338 6.361 2.998 2.809 2.558 4.078 4.812 5.889 9.777l3.845 11.184h6.602v4.408h-9.005v-.016h-10.004c-1.646-8.188-3.132-14.639-5.603-19.295-.301-.618-.616-1.233-.961-1.848-1.347-2.296-2.877-3.587-4.305-4.521-1.051-.684-2.65-1.193-4.153-1.584-1.608-.459-3.41-.76-5.483-.834h-1.313c-.204-.013-.398-.021-.609-.027h-6.489v23.748h8.36v4.402h-30.276v-4.402h8.314v-49.428h-8.181v-4.379zm73.462 47.065c-.977 1.463-2.202 2.77-3.637 3.82-2.336 1.869-5.001 2.951-7.833 3.051-.532.061-1.098.119-1.658.119-.586 0-1.136-.061-1.689-.119-2.832-.105-5.476-1.18-7.817-3.051-1.436-1.053-2.666-2.352-3.636-3.82-3.281-4.537-5.34-10.893-5.34-17.951 0-6.639 1.833-12.664 4.754-17.088 1.646-2.941 4.221-5.271 7.375-6.639.023-.01.045-.023.075-.039.145-.061.293-.119.458-.174.414-.172.841-.314 1.278-.449 1.434-.42 2.966-.654 4.544-.654 1.576 0 3.102.234 4.535.654.444.135.864.271 1.294.443.143.068.293.129.457.18.016.029.046.029.074.039 3.125 1.367 5.739 3.695 7.361 6.639 2.943 4.455 4.754 10.471 4.754 17.088-.009 7.058-2.059 13.419-5.349 17.951zm-81.822-21.422c6.092-.272 10.957-4.497 10.957-10.65s-4.866-10.411-10.965-10.643h-14.165v21.293z" fill="#026139"/></g></svg>

<?xml version="1.0" encoding="UTF-8" standalone="no"?>
<!DOCTYPE svg PUBLIC "-//W3C//DTD SVG 1.1//EN" "http://www.w3.org/Graphics/SVG/1.1/DTD/svg11.dtd">
<svg width="100%" height="100%" viewBox="0 0 560 400" version="1.1" xmlns="http://www.w3.org/2000/svg" xmlns:xlink="http://www.w3.org/1999/xlink" xml:space="preserve" xmlns:serif="http://www.serif.com/" style="fill-rule:evenodd;clip-rule:evenodd;stroke-linejoin:round;stroke-miterlimit:1.41421;">
    <g transform="matrix(1.04648,0,0,1.04648,68.9603,42.5187)">
        <path id="crown" d="M159.969,88.722C160.48,88.722 160.999,88.639 161.48,88.527L178.792,147.359L178.808,147.359C180.731,153.922 190.29,158.91 201.796,158.91C213.311,158.91 222.851,153.926 224.794,147.359L224.802,147.359L242.1,88.566C242.504,88.649 242.955,88.724 243.421,88.724C246.787,88.724 249.505,86.006 249.505,82.626C249.505,79.284 246.793,76.549 243.421,76.549C240.071,76.549 237.337,79.276 237.337,82.626C237.337,85.067 238.749,87.14 240.809,88.116L220.753,131.097L223.968,73.183L224.105,73.183C227.456,73.183 230.197,70.465 230.197,67.106C230.197,63.75 227.463,61.007 224.105,61.007C220.761,61.007 218.01,63.749 218.01,67.106C218.01,69.878 219.88,72.199 222.406,72.941L209.076,129.543L202.638,67.16C205.599,66.725 207.852,64.193 207.852,61.128C207.852,57.778 205.141,55.045 201.775,55.045C198.404,55.045 195.684,57.772 195.684,61.128C195.684,64.193 197.967,66.747 200.918,67.16L194.503,129.423L181.188,72.935C183.749,72.215 185.643,69.885 185.643,67.1C185.643,63.743 182.91,61.002 179.56,61.002C176.187,61.002 173.46,63.743 173.46,67.1C173.46,70.45 176.188,73.177 179.56,73.177L179.643,73.177L182.865,131.059L162.767,88.032C164.735,87.018 166.064,84.982 166.064,82.609C166.064,79.267 163.352,76.533 159.971,76.533C156.615,76.533 153.895,79.26 153.895,82.609C153.894,86.001 156.606,88.722 159.969,88.722ZM201.683,142.4C212.212,142.4 220.737,145.097 220.737,148.401C220.737,151.721 212.213,154.395 201.683,154.395C191.153,154.395 182.62,151.729 182.62,148.401C182.623,145.097 191.154,142.4 201.683,142.4Z" style="fill:rgb(162,128,62);fill-rule:nonzero;"/>
        <path id="r" d="M134.473,183.582C117.017,183.582 102.868,197.756 102.868,214.752C102.868,231.77 117.017,245.928 134.473,245.928C151.912,245.928 166.054,231.764 166.054,214.752C166.053,197.756 151.911,183.582 134.473,183.582ZM335.825,185.844L335.825,190.092L330.772,190.092C329.675,190.108 328.781,190.994 328.781,192.092C328.781,192.557 328.969,192.992 329.246,193.33L331.094,195.674L339.957,206.705L351.252,193.262C351.477,192.932 351.621,192.543 351.621,192.098C351.621,190.995 350.728,190.116 349.616,190.116L349.602,190.116L349.602,190.102L344.45,190.102L344.45,185.85L367.927,185.85L367.927,190.102L364.601,190.102C360.202,190.168 359.278,191.522 355.86,195.434L355.86,195.426L343.122,210.633L362.373,234.594C365.632,238.348 366.624,239.648 370.847,239.752L370.847,239.749L370.845,239.749L370.845,239.746L370.847,239.746L370.847,239.749L373.671,239.749L373.671,243.983L342.016,243.983L342.016,239.749L347.461,239.749C348.575,239.749 349.475,238.839 349.475,237.735C349.475,237.268 349.287,236.841 349.017,236.487L347.288,234.341L335.969,220.228L322.344,236.501C322.06,236.84 321.886,237.268 321.886,237.733C321.886,238.862 322.794,239.747 323.891,239.747L330.079,239.747L330.079,243.983L304.975,243.983L304.975,239.747L308.556,239.747C312.964,239.663 313.896,238.343 317.327,234.413L317.327,234.452L332.672,216.141L315.63,194.924C312.686,191.541 311.605,190.268 307.864,190.092L306.467,190.092L306.467,185.844L335.825,185.844ZM295.394,185.789L295.394,185.795L295.703,185.795L295.703,205.799L291.272,205.799L291.272,199.813C291.227,194.518 286.921,190.231 281.598,190.2L259.764,190.2L259.764,211.065L266.74,211.065C270.685,211.02 273.876,208.209 273.876,204.268C273.876,204.223 273.867,204.163 273.867,204.11L273.876,204.11L273.876,201.286L277.87,201.286L277.87,225.632L273.869,225.632L273.869,222.415L273.86,222.415C273.869,222.376 273.869,222.325 273.869,222.259C273.869,218.321 270.678,215.122 266.741,215.075L259.763,215.075L259.763,239.588L281.561,239.588C286.9,239.588 291.235,235.287 291.279,229.969L291.277,223.035L295.709,223.035L295.709,243.975L237.867,243.975L237.867,239.574L246.169,239.574L246.169,190.189L237.867,190.189L237.867,185.789L295.394,185.789ZM204.486,185.775L204.486,190.168L196.021,190.168L196.021,239.541L214.488,239.541L214.488,239.525C214.502,239.525 214.527,239.533 214.548,239.533C219.843,239.533 224.131,235.299 224.269,230.033L224.269,221.246L228.64,221.246L228.64,229.568L228.687,229.568L228.687,243.929L228.64,243.929L228.64,243.945L173.962,243.945L173.962,239.545L182.435,239.545L182.435,190.168L173.962,190.168L173.962,185.775L204.486,185.775ZM74.139,185.699L74.139,185.715C74.25,185.715 74.341,185.699 74.424,185.699C82.707,185.699 89.414,192.422 89.414,200.705C89.414,208.168 83.961,214.383 76.805,215.516C78.728,216.073 81.312,216.854 83.166,218.514C85.975,221.072 87.244,223.326 89.055,228.291L92.9,239.475L99.502,239.475L99.502,243.883L90.497,243.883L90.497,243.867L80.493,243.867C78.847,235.679 77.361,229.228 74.89,224.572C74.589,223.954 74.274,223.339 73.929,222.724C72.582,220.428 71.052,219.137 69.624,218.203C68.573,217.519 66.974,217.01 65.471,216.619C63.863,216.16 62.061,215.859 59.988,215.785L58.675,215.785C58.471,215.772 58.277,215.764 58.066,215.758L51.577,215.758L51.577,239.506L59.937,239.506L59.937,243.908L29.661,243.908L29.661,239.506L37.975,239.506L37.975,190.078L29.794,190.078L29.794,185.699L74.139,185.699ZM147.601,232.764C146.624,234.227 145.399,235.534 143.964,236.584C141.628,238.453 138.963,239.535 136.131,239.635C135.599,239.696 135.033,239.754 134.473,239.754C133.887,239.754 133.337,239.693 132.784,239.635C129.952,239.53 127.308,238.455 124.967,236.584C123.531,235.531 122.301,234.232 121.331,232.764C118.05,228.227 115.991,221.871 115.991,214.813C115.991,208.174 117.824,202.149 120.745,197.725C122.391,194.784 124.966,192.454 128.12,191.086C128.143,191.076 128.165,191.063 128.195,191.047C128.34,190.986 128.488,190.928 128.653,190.873C129.067,190.701 129.494,190.559 129.931,190.424C131.365,190.004 132.897,189.77 134.475,189.77C136.051,189.77 137.577,190.004 139.01,190.424C139.454,190.559 139.874,190.695 140.304,190.867C140.447,190.935 140.597,190.996 140.761,191.047C140.777,191.076 140.807,191.076 140.835,191.086C143.96,192.453 146.574,194.781 148.196,197.725C151.139,202.18 152.95,208.196 152.95,214.813C152.941,221.871 150.891,228.232 147.601,232.764ZM65.779,211.342C71.871,211.07 76.736,206.845 76.736,200.692C76.736,194.539 71.87,190.281 65.771,190.049L51.606,190.049L51.606,211.342L65.779,211.342Z" style="fill:rgb(2,97,57);fill-rule:nonzero;"/>
    </g>
</svg>
